images_sukapura_svg/cmd/32/browseview.svg

<?xml version="1.0" encoding="UTF-8" standalone="no"?>
<svg
   xmlns:dc="http://purl.org/dc/elements/1.1/"
   xmlns:cc="http://creativecommons.org/ns#"
   xmlns:rdf="http://www.w3.org/1999/02/22-rdf-syntax-ns#"
   xmlns:svg="http://www.w3.org/2000/svg"
   xmlns="http://www.w3.org/2000/svg"
   xmlns:xlink="http://www.w3.org/1999/xlink"
   xmlns:sodipodi="http://sodipodi.sourceforge.net/DTD/sodipodi-0.dtd"
   xmlns:inkscape="http://www.inkscape.org/namespaces/inkscape"
   viewBox="0 0 32 32"
   version="1.1"
   id="svg24"
   sodipodi:docname="browseview.svg"
   inkscape:version="0.92.3 (unknown)"
   inkscape:export-filename="/home/rizmut/Dokumen/Rizmut/Github/libreoffice-style-sukapura/images_sukapura/cmd/32/browseview.png"
   inkscape:export-xdpi="96"
   inkscape:export-ydpi="96">
  <metadata
     id="metadata30">
    <rdf:RDF>
      <cc:Work
         rdf:about="">
        <dc:format>image/svg+xml</dc:format>
        <dc:type
           rdf:resource="http://purl.org/dc/dcmitype/StillImage" />
        <dc:title></dc:title>
      </cc:Work>
    </rdf:RDF>
  </metadata>
  <defs
     id="defs28">
    <linearGradient
       gradientTransform="matrix(0.92307692,0,0,0.92307692,16.076923,15.153846)"
       inkscape:collect="always"
       xlink:href="#a-3"
       id="linearGradient867"
       x1="7.5644531"
       y1="14.996094"
       x2="7.5683632"
       y2="2.0039101"
       gradientUnits="userSpaceOnUse" />
    <linearGradient
       gradientTransform="translate(-14.595038,-11.35191)"
       id="a-3"
       gradientUnits="userSpaceOnUse"
       x1="8"
       x2="8.8085938"
       y1="14"
       y2="2.1347661">
      <stop
         offset="0"
         stop-color="#e5eefc"
         id="stop2-6" />
      <stop
         offset="1"
         stop-color="#fcfdff"
         id="stop4-7" />
    </linearGradient>
    <linearGradient
       gradientTransform="translate(-25.830508,-3.5932203)"
       id="a"
       gradientUnits="userSpaceOnUse"
       x1="14"
       x2="13.79661"
       y1="22"
       y2="2.1355929">
      <stop
         offset="0"
         stop-color="#0040dd"
         id="stop2" />
      <stop
         offset="1"
         stop-color="#0a84ff"
         id="stop4" />
    </linearGradient>
    <linearGradient
       inkscape:collect="always"
       xlink:href="#a"
       id="linearGradient870"
       x1="17.434654"
       y1="23.064604"
       x2="17.514927"
       y2="12.48026"
       gradientUnits="userSpaceOnUse" />
    <linearGradient
       inkscape:collect="always"
       xlink:href="#a"
       id="linearGradient878"
       x1="17.650005"
       y1="23.037006"
       x2="17.5"
       y2="12"
       gradientUnits="userSpaceOnUse" />
    <linearGradient
       inkscape:collect="always"
       xlink:href="#a"
       id="linearGradient880"
       x1="17.650005"
       y1="23.037006"
       x2="17.5"
       y2="12"
       gradientUnits="userSpaceOnUse" />
  </defs>
  <sodipodi:namedview
     pagecolor="#ffffff"
     bordercolor="#666666"
     borderopacity="1"
     objecttolerance="10"
     gridtolerance="10"
     guidetolerance="10"
     inkscape:pageopacity="0"
     inkscape:pageshadow="2"
     inkscape:window-width="1366"
     inkscape:window-height="706"
     id="namedview26"
     showgrid="true"
     inkscape:zoom="5.2149125"
     inkscape:cx="39.168524"
     inkscape:cy="0.22053244"
     inkscape:window-x="0"
     inkscape:window-y="0"
     inkscape:window-maximized="1"
     inkscape:current-layer="svg24">
    <inkscape:grid
       type="xygrid"
       id="grid882" />
  </sodipodi:namedview>
  <rect
     style="opacity:1;fill:#ffffff;fill-opacity:1;stroke:none;stroke-width:1;stroke-linecap:round;stroke-linejoin:round;stroke-miterlimit:4;stroke-dasharray:none;stroke-opacity:0"
     id="rect902"
     width="26"
     height="20"
     x="3"
     y="6"
     rx="0"
     ry="0" />
  <path
     style="fill:#98989d;fill-opacity:1"
     d="M 2.9980469 5 C 2.4545799 5.107517 1.9980469 5.446 1.9980469 6 L 1.9980469 11.507812 L 1.9980469 19.142578 L 1.9980469 26 C 1.9980469 26.554 2.4440469 27 2.9980469 27 L 15.912109 27 L 16.083984 27 L 28.998047 27 C 29.552047 27 29.998047 26.554 29.998047 26 L 29.998047 19.142578 L 29.998047 11.507812 L 29.998047 6 C 29.998047 5.446 29.541514 5.107517 28.998047 5 L 23.613281 5 L 18.888672 5 L 13.107422 5 L 8.3828125 5 L 2.9980469 5 z M 2.9980469 6 L 3 6 L 7.4023438 6 L 9.9980469 6 L 21.998047 6 L 24.59375 6 L 28.998047 6 L 29 6 L 29 26 L 28.998047 26 L 16.408203 26 A 8 8 0 0 1 16 26.839844 A 8 8 0 0 1 15.587891 26 L 3 26 L 2.9980469 26 L 2.9980469 17.720703 L 2.9980469 13 L 3 13 L 3 10.486328 L 2.9980469 10.488281 L 2.9980469 6 z "
     id="path4" />
  <path
     d="m 23,15 c -4.418278,0 -8,3.581722 -8,8 0.0015,1.027836 0.201153,2.045743 0.587891,2.998047 H 2.9980469 V 26 H 15.587891 c 0.141878,0.344478 0.307646,0.678625 0.496093,1 h 12.914063 c 0.554,0 1,-0.446 1,-1 v -6.857422 c -0.280698,-0.508874 -0.61601,-0.985646 -1,-1.421875 C 27.482067,15.994679 25.297247,15.003648 23,15 Z"
     id="path889"
     inkscape:connector-curvature="0"
     sodipodi:nodetypes="cccccccssccc"
     style="fill:#ffffff;fill-opacity:0.78431374;stroke:none" />
  <path
     inkscape:connector-curvature="0"
     style="fill:url(#linearGradient867);fill-opacity:1;stroke-width:0.92307693"
     d="m 29,23 a 6,6 0 0 1 -6,6 6,6 0 0 1 -6,-6 6,6 0 0 1 6,-6 6,6 0 0 1 6,6 z"
     id="circle2" />
  <g
     transform="matrix(1.2727273 0 0 1.2727273 .727272 .727272)"
     id="g22">
    <circle
       cx="17.5"
       cy="17.5"
       fill="#fff"
       r="4.5"
       id="circle6" />
    <path
       d="m17.5 12a5.5 5.5 0 0 0 -5.5 5.5 5.5 5.5 0 0 0 5.5 5.5 5.5 5.5 0 0 0 5.5-5.5 5.5 5.5 0 0 0 -5.5-5.5zm0 1a4.5 4.5 0 0 1 4.5 4.5 4.5 4.5 0 0 1 -4.5 4.5 4.5 4.5 0 0 1 -4.5-4.5 4.5 4.5 0 0 1 4.5-4.5z"
       fill="#4d82b8"
       id="path8"
       style="stroke:none;fill-opacity:1;fill:url(#linearGradient878)" />
    <path
       d="m12.568545 17h9.844933v1h-9.844933z"
       fill="#4d82b8"
       id="path10"
       style="stroke:none;fill-opacity:1;fill:url(#linearGradient880)" />
    <g
       id="g20"
       stroke="#4d82b8"
       fill="none"
       style="stroke:url(#linearGradient870)">
      <path
         d="m17 22c-1.387224-2.634108-2.531504-5.332342 0-9"
         id="path12"
         stroke-linecap="square"
         style="stroke:url(#linearGradient870)" />
      <path
         d="m18.004067 22c1.387224-2.634108 2.531504-5.332342 0-9"
         id="path14"
         stroke-linecap="square"
         style="stroke:url(#linearGradient870)" />
      <path
         d="m13.478658 14.449432c2.336607 1.442656 5.670005 1.336285 8.006729 0"
         id="path16"
         stroke-opacity=".992157"
         style="stroke:url(#linearGradient870)" />
      <path
         d="m13.478658 20.56596c2.336607-1.442656 5.670005-1.336285 8.006729 0"
         id="path18"
         stroke-opacity=".992157"
         style="stroke:url(#linearGradient870)" />
    </g>
  </g>
</svg>

<svg viewBox="0 0 32 32" xmlns="http://www.w3.org/2000/svg" xmlns:xlink="http://www.w3.org/1999/xlink"><linearGradient id="a" gradientUnits="userSpaceOnUse" x1="23.059495" x2="23.063104" y1="28.996394" y2="17.003609"><stop offset="0" stop-color="#e5eefc"/><stop offset="1" stop-color="#fcfdff"/></linearGradient><linearGradient id="b" gradientTransform="translate(-25.830508 -3.59322)" gradientUnits="userSpaceOnUse" x1="14" x2="13.79661" y1="22" y2="2.135593"><stop offset="0" stop-color="#0040dd"/><stop offset="1" stop-color="#0a84ff"/></linearGradient><linearGradient id="c" gradientUnits="userSpaceOnUse" x1="17.434654" x2="17.514927" xlink:href="#b" y1="23.064604" y2="12.48026"/><linearGradient id="d" gradientUnits="userSpaceOnUse" x1="17.650005" x2="17.5" xlink:href="#b" y1="23.037006" y2="12"/><path d="m3 6h26v20h-26z" fill="#fff"/><path d="m2.9980469 5c-.543467.107517-1 .446-1 1v5.507812 7.634766 6.857422c0 .554.446 1 1 1h12.9140621.171875 12.914063c.554 0 1-.446 1-1v-6.857422-7.634766-5.507812c0-.554-.456533-.892483-1-1h-5.384766-4.724609-5.78125-4.7246095zm0 1h.0019531 4.4023438 2.5957031 12.0000001 2.595703 4.404297.001953v20h-.001953-12.589844a8 8 0 0 1 -.408203.839844 8 8 0 0 1 -.412109-.839844h-12.587891-.0019531v-8.279297-4.720703h.0019531v-2.513672l-.0019531.001953z" fill="#98989d"/><path d="m23 15c-4.418278 0-8 3.581722-8 8 .0015 1.027836.201153 2.045743.587891 2.998047h-12.5898441v.001953h12.5898441c.141878.344478.307646.678625.496093 1h12.914063c.554 0 1-.446 1-1v-6.857422c-.280698-.508874-.61601-.985646-1-1.421875-1.51598-1.726024-3.7008-2.717055-5.998047-2.720703z" fill="#fff" fill-opacity=".784314"/><path d="m29 23a6 6 0 0 1 -6 6 6 6 0 0 1 -6-6 6 6 0 0 1 6-6 6 6 0 0 1 6 6z" fill="url(#a)" stroke-width=".923077"/><g transform="matrix(1.2727273 0 0 1.2727273 .727272 .727272)"><circle cx="17.5" cy="17.5" fill="#fff" r="4.5"/><path d="m17.5 12a5.5 5.5 0 0 0 -5.5 5.5 5.5 5.5 0 0 0 5.5 5.5 5.5 5.5 0 0 0 5.5-5.5 5.5 5.5 0 0 0 -5.5-5.5zm0 1a4.5 4.5 0 0 1 4.5 4.5 4.5 4.5 0 0 1 -4.5 4.5 4.5 4.5 0 0 1 -4.5-4.5 4.5 4.5 0 0 1 4.5-4.5z" fill="url(#d)"/><path d="m12.568545 17h9.844933v1h-9.844933z" fill="url(#d)"/><g fill="none" stroke="url(#c)"><path d="m17 22c-1.387224-2.634108-2.531504-5.332342 0-9" stroke-linecap="square"/><path d="m18.004067 22c1.387224-2.634108 2.531504-5.332342 0-9" stroke-linecap="square"/><g stroke-opacity=".992157"><path d="m13.478658 14.449432c2.336607 1.442656 5.670005 1.336285 8.006729 0"/><path d="m13.478658 20.56596c2.336607-1.442656 5.670005-1.336285 8.006729 0"/></g></g></g></svg>
